icons/light/less.svg

<svg width="16" height="16" viewBox="0 0 16 16" fill="none" xmlns="http://www.w3.org/2000/svg">
<path d="M9.70703 1.29297L12.707 4.29297L13 5V10H12V6H8V2H3V10H2V2L3 1H9L9.70703 1.29297ZM9 5H12L9 2V5Z" fill="#424242"/>
<path d="M1.47692 15V11.4462H2.31795V14.3359H3.85897L3.77179 15H1.47692ZM5.39412 12.0462V12.9H6.62489V13.4897H5.39412V14.3974H6.87874V15H4.55309V11.4462H6.87617L6.79156 12.0462H5.39412ZM10.0652 13.9615C10.0652 14.1821 10.007 14.3769 9.89081 14.5462C9.77628 14.7154 9.61132 14.8479 9.39593 14.9436C9.18055 15.0393 8.92157 15.0872 8.61901 15.0872C8.28397 15.0872 8.00277 15.0385 7.77542 14.941C7.54978 14.8419 7.3626 14.7197 7.21388 14.5744L7.63952 14.1026C7.77115 14.2171 7.91645 14.306 8.07542 14.3692C8.23439 14.4308 8.40875 14.4615 8.5985 14.4615C8.71645 14.4615 8.81986 14.4444 8.90875 14.4103C8.99764 14.3761 9.06687 14.3265 9.11645 14.2615C9.16602 14.1966 9.19081 14.1179 9.19081 14.0256C9.19081 13.9385 9.17115 13.865 9.13183 13.8051C9.09251 13.7453 9.02585 13.6915 8.93183 13.6436C8.83952 13.5957 8.71046 13.547 8.54465 13.4974C8.26773 13.412 8.04465 13.3179 7.87542 13.2154C7.7079 13.1128 7.58568 12.994 7.50875 12.859C7.43354 12.7239 7.39593 12.5667 7.39593 12.3872C7.39593 12.1701 7.45576 11.9846 7.57542 11.8308C7.69679 11.6769 7.85918 11.5598 8.0626 11.4795C8.26602 11.3974 8.48995 11.3564 8.73439 11.3564C9.00961 11.3564 9.25234 11.3966 9.4626 11.4769C9.67286 11.5556 9.85491 11.6684 10.0088 11.8154L9.61132 12.2718C9.49166 12.1709 9.3626 12.0966 9.22414 12.0487C9.08568 11.9991 8.94465 11.9744 8.80106 11.9744C8.69508 11.9744 8.60192 11.988 8.52157 12.0154C8.44123 12.041 8.37884 12.0795 8.33439 12.1308C8.28995 12.1821 8.26773 12.2462 8.26773 12.3231C8.26773 12.3983 8.2891 12.4615 8.33183 12.5128C8.37457 12.5641 8.44892 12.6128 8.55491 12.659C8.66089 12.7034 8.8079 12.7556 8.99593 12.8154C9.21987 12.8838 9.41132 12.9658 9.57029 13.0615C9.73098 13.1556 9.8532 13.2744 9.93696 13.4179C10.0224 13.5615 10.0652 13.7427 10.0652 13.9615ZM13.1413 13.9615C13.1413 14.1821 13.0832 14.3769 12.967 14.5462C12.8524 14.7154 12.6875 14.8479 12.4721 14.9436C12.2567 15.0393 11.9977 15.0872 11.6952 15.0872C11.3601 15.0872 11.0789 15.0385 10.8516 14.941C10.626 14.8419 10.4388 14.7197 10.2901 14.5744L10.7157 14.1026C10.8473 14.2171 10.9926 14.306 11.1516 14.3692C11.3106 14.4308 11.4849 14.4615 11.6747 14.4615C11.7926 14.4615 11.896 14.4444 11.9849 14.4103C12.0738 14.3761 12.143 14.3265 12.1926 14.2615C12.2422 14.1966 12.267 14.1179 12.267 14.0256C12.267 13.9385 12.2473 13.865 12.208 13.8051C12.1687 13.7453 12.102 13.6915 12.008 13.6436C11.9157 13.5957 11.7866 13.547 11.6208 13.4974C11.3439 13.412 11.1208 13.3179 10.9516 13.2154C10.7841 13.1128 10.6618 12.994 10.5849 12.859C10.5097 12.7239 10.4721 12.5667 10.4721 12.3872C10.4721 12.1701 10.5319 11.9846 10.6516 11.8308C10.773 11.6769 10.9354 11.5598 11.1388 11.4795C11.3422 11.3974 11.5661 11.3564 11.8106 11.3564C12.0858 11.3564 12.3285 11.3966 12.5388 11.4769C12.749 11.5556 12.9311 11.6684 13.0849 11.8154L12.6875 12.2718C12.5678 12.1709 12.4388 12.0966 12.3003 12.0487C12.1618 11.9991 12.0208 11.9744 11.8772 11.9744C11.7713 11.9744 11.6781 11.988 11.5977 12.0154C11.5174 12.041 11.455 12.0795 11.4106 12.1308C11.3661 12.1821 11.3439 12.2462 11.3439 12.3231C11.3439 12.3983 11.3653 12.4615 11.408 12.5128C11.4507 12.5641 11.5251 12.6128 11.6311 12.659C11.7371 12.7034 11.8841 12.7556 12.0721 12.8154C12.296 12.8838 12.4875 12.9658 12.6465 13.0615C12.8071 13.1556 12.9294 13.2744 13.0131 13.4179C13.0986 13.5615 13.1413 13.7427 13.1413 13.9615Z" fill="#424242"/>
</svg>

<svg xmlns="http://www.w3.org/2000/svg" width="16" height="16" fill="#424242" xmlns:v="https://vecta.io/nano"><path d="M9.707 1.293l3 3L13 5v5h-1V6H8V2H3v8H2V2l1-1h6l.707.293zM9 5h3L9 2v3zM1.477 15v-3.554h.841v2.89h1.541L3.772 15H1.477zm3.917-2.954v.854h1.231v.59H5.394v.908h1.485V15H4.553v-3.554h2.323l-.085.6H5.394zm4.671 1.915a1.01 1.01 0 0 1-.174.585 1.13 1.13 0 0 1-.495.397c-.216.095-.474.144-.777.144-.335 0-.616-.049-.844-.146s-.413-.221-.562-.367l.426-.472a1.51 1.51 0 0 0 .436.267c.159.062.333.092.523.092.118 0 .221-.017.31-.051s.158-.084.208-.149.074-.144.074-.236c0-.087-.02-.161-.059-.221s-.106-.114-.2-.162a2.31 2.31 0 0 0-.387-.146c-.277-.085-.5-.18-.669-.282s-.29-.221-.367-.356-.113-.292-.113-.472a.88.88 0 0 1 .179-.556c.119-.153.284-.271.487-.351a1.78 1.78 0 0 1 .672-.123c.275 0 .518.04.728.12s.392.191.546.338l-.397.456a1.22 1.22 0 0 0-.387-.223 1.28 1.28 0 0 0-.423-.074c-.106 0-.199.014-.279.041s-.143.064-.187.115-.067.115-.067.192.021.138.064.19.117.1.223.146.253.097.441.156a2.57 2.57 0 0 1 .574.246c.161.094.283.213.367.356s.128.325.128.544zm3.076 0a1.01 1.01 0 0 1-.174.585c-.116.17-.28.302-.495.397s-.474.144-.777.144c-.335 0-.616-.049-.844-.146a1.78 1.78 0 0 1-.561-.367l.426-.472a1.51 1.51 0 0 0 .436.267c.159.062.333.092.523.092.118 0 .221-.017.31-.051s.158-.084.208-.149.074-.144.074-.236c0-.087-.02-.161-.059-.221s-.106-.114-.2-.162a2.31 2.31 0 0 0-.387-.146c-.277-.085-.5-.18-.669-.282s-.29-.221-.367-.356-.113-.292-.113-.472c0-.217.06-.403.18-.556s.284-.271.487-.351a1.78 1.78 0 0 1 .672-.123c.275 0 .518.04.728.12s.392.191.546.338l-.397.456a1.22 1.22 0 0 0-.387-.223c-.138-.048-.28-.074-.423-.074-.106 0-.199.014-.28.041a.41.41 0 0 0-.187.115c-.044.051-.067.115-.067.192s.021.138.064.19.117.1.223.146.253.097.441.156a2.57 2.57 0 0 1 .574.246c.161.094.283.213.367.356s.128.325.128.544z"/></svg>
